/* XPM */
static char * shade_toggled_pressed_xpm[] = {
"26 30 3 1",
" 	c None",
".	c #9d80b8",
"+	c #0070A7",
"                          ",
"                          ",
"                          ",
"                          ",
"     ................     ",
"    .++++++++++++++++.    ",
"   .++++++++++++++++++.   ",
"  .++++++++++++++++++++.  ",
"  .++++++++++++++++++++.  ",
"  .++++++++++++++++++++.  ",
"  .++++++++++++++++++++.  ",
"  .++++++++++++++++++++.  ",
"  .++++++++++++++++++++.  ",
"  .++++++++++++++++++++.  ",
"  .++++++++++++++++++++.  ",
"  .++++++++++++++++++++.  ",
"  .++++++++++++++++++++.  ",
"  .++++++++++++++++++++.  ",
"  .++++++++++++++++++++.  ",
"  .++++++++++++++++++++.  ",
"  .++++++++++++++++++++.  ",
"  .++++++++++++++++++++.  ",
"  .++++++++++++++++++++.  ",
"   .++++++++++++++++++.   ",
"    .++++++++++++++++.    ",
"     ................     ",
"                          ",
"                          ",
"                          ",
"                          "};
