/* XPM */
static char * close_pressed_xpm[] = {
"73 45 2 1",
" 	c None",
".	c #9d80b8",
".........................................................................",
".........................................................................",
".........................................................................",
".........................................................................",
".........................................................................",
".........................................................................",
".........................................................................",
".........................................................................",
".........................................................................",
".........................................................................",
".........................................................................",
".........................................................................",
".........................................................................",
".........................................................................",
".........................................................................",
".........................................................................",
".........................................................................",
".........................................................................",
".........................................................................",
".........................................................................",
".........................................................................",
".........................................................................",
".........................................................................",
".........................................................................",
".........................................................................",
".........................................................................",
".........................................................................",
".........................................................................",
"........................................................................ ",
".......................................................................  ",
"......................................................................   ",
"                                                                         ",
"                                                                         ",
"                                                                         ",
"                                                                         ",
"                                                                         ",
"                                                                         ",
"                                                                         ",
"                                                                         ",
"                                                                         ",
"                                                                         ",
"                                                                         ",
"                                                                         ",
"                                                                         ",
"                                                                         "};
