/* XPM */
static char * close_prelight_xpm[] = {
"73 45 2 1",
" 	c None",
".	c #e3e3e3",
".........................................................................",
".........................................................................",
".........................................................................",
".........................................................................",
".........................................................................",
".........................................................................",
".........................................................................",
".........................................................................",
".........................................................................",
".........................................................................",
".........................................................................",
".........................................................................",
".........................................................................",
".........................................................................",
".........................................................................",
".........................................................................",
".........................................................................",
".........................................................................",
".........................................................................",
".........................................................................",
".........................................................................",
".........................................................................",
".........................................................................",
".........................................................................",
".........................................................................",
".........................................................................",
".........................................................................",
".........................................................................",
"........................................................................ ",
".......................................................................  ",
"......................................................................   ",
"                                                                         ",
"                                                                         ",
"                                                                         ",
"                                                                         ",
"                                                                         ",
"                                                                         ",
"                                                                         ",
"                                                                         ",
"                                                                         ",
"                                                                         ",
"                                                                         ",
"                                                                         ",
"                                                                         ",
"                                                                         "};
