/* XPM */
static char * stick_toggled_active_xpm[] = {
"26 30 2 1",
" 	c None",
".	c #e3e3e3",
"                          ",
"                          ",
"                          ",
"                          ",
"    ..................    ",
"   ....................   ",
"  ......................  ",
"  ......................  ",
"  ......................  ",
"  ......................  ",
"  ......................  ",
"  ......................  ",
"  ......................  ",
"  ......................  ",
"  ......................  ",
"  ......................  ",
"  ......................  ",
"  ......................  ",
"  ......................  ",
"  ......................  ",
"  ......................  ",
"  ......................  ",
"  ......................  ",
"  ......................  ",
"   ....................   ",
"    ..................    ",
"                          ",
"                          ",
"                          ",
"                          "};
