/* XPM */
static char * top_left_inactive_xpm[] = {
"12 45 2 1",
" 	c None",
".	c #a8a8a8",
"     .......",
"   .........",
"  ..........",
" ...........",
" ...........",
"............",
"............",
"............",
"............",
"............",
"............",
"............",
"............",
"............",
"............",
"............",
"............",
"............",
"............",
"............",
"............",
"............",
"............",
"............",
"............",
"............",
"............",
"............",
"............",
"............",
"............",
"............",
"............",
"............",
"............",
"............",
"............",
"............",
"............",
"............",
"............",
"............",
"............",
"............",
"............"};
