/* XPM */
static char * hide_pressed_xpm[] = {
"29 30 3 1",
" 	c None",
".	c #80d1d1",
"+	c #0070A7",
".............................",
".++++++++++++++++++++++++++++",
".++++++++++++++++++++++++++++",
".++++++++++++++++++++++++++++",
".++++++++++++++++++++++++++++",
".++++++++++++++++++++++++++++",
".++++++++++++++++++++++++++++",
".++++++++++++++++++++++++++++",
".++++++++++++++++++++++++++++",
".++++++++++++++++++++++++++++",
".++++++++++++++++++++++++++++",
".++++++++++++++++++++++++++++",
".++++++++++++++++++++++++++++",
".++++++++++++++++++++++++++++",
".++++++++++++++++++++++++++++",
".++++++++++++++++++++++++++++",
".++++++++++++++++++++++++++++",
".++++++++++++++++++++++++++++",
" .+++++++++++++++++++++++++++",
"  .++++++++++++++++++++++++++",
"   ..........................",
"                             ",
"                             ",
"                             ",
"                             ",
"                             ",
"                             ",
"                             ",
"                             ",
"                             "};
