/* XPM */
static char * stick_toggled_inactive_xpm[] = {
"26 30 2 1",
" 	c None",
".	c #a8c8c8",
"                          ",
"                          ",
"                          ",
"                          ",
"    ..................    ",
"   ....................   ",
"  ......................  ",
"  ......................  ",
"  ......................  ",
"  ......................  ",
"  ......................  ",
"  ......................  ",
"  ......................  ",
"  ......................  ",
"  ......................  ",
"  ......................  ",
"  ......................  ",
"  ......................  ",
"  ......................  ",
"  ......................  ",
"  ......................  ",
"  ......................  ",
"  ......................  ",
"  ......................  ",
"   ....................   ",
"    ..................    ",
"                          ",
"                          ",
"                          ",
"                          "};
