/* XPM */
static char * menu_active_xpm[] = {
"20 30 2 1",
" 	c None",
".	c #0090af",
"                    ",
"                    ",
"                    ",
"                    ",
"                    ",
"....................",
"....................",
"....................",
"....................",
"....................",
"....................",
"....................",
"....................",
"....................",
"....................",
"....................",
"....................",
"....................",
"....................",
"....................",
"....................",
"....................",
"....................",
"....................",
"....................",
"                    ",
"                    ",
"                    ",
"                    ",
"                    "};
