/* XPM */
static char * hide_pressed_xpm[] = {
"43 45 3 1",
" 	c None",
".	c #e7d0e5",
"+	c #0070A7",
"...........................................",
".++++++++++++++++++++++++++++++++++++++++++",
".++++++++++++++++++++++++++++++++++++++++++",
".++++++++++++++++++++++++++++++++++++++++++",
".++++++++++++++++++++++++++++++++++++++++++",
".++++++++++++++++++++++++++++++++++++++++++",
".++++++++++++++++++++++++++++++++++++++++++",
".++++++++++++++++++++++++++++++++++++++++++",
".++++++++++++++++++++++++++++++++++++++++++",
".++++++++++++++++++++++++++++++++++++++++++",
".++++++++++++++++++++++++++++++++++++++++++",
".++++++++++++++++++++++++++++++++++++++++++",
".++++++++++++++++++++++++++++++++++++++++++",
".++++++++++++++++++++++++++++++++++++++++++",
".++++++++++++++++++++++++++++++++++++++++++",
".++++++++++++++++++++++++++++++++++++++++++",
".++++++++++++++++++++++++++++++++++++++++++",
".++++++++++++++++++++++++++++++++++++++++++",
".++++++++++++++++++++++++++++++++++++++++++",
".++++++++++++++++++++++++++++++++++++++++++",
".++++++++++++++++++++++++++++++++++++++++++",
".++++++++++++++++++++++++++++++++++++++++++",
".++++++++++++++++++++++++++++++++++++++++++",
".++++++++++++++++++++++++++++++++++++++++++",
".++++++++++++++++++++++++++++++++++++++++++",
".++++++++++++++++++++++++++++++++++++++++++",
".++++++++++++++++++++++++++++++++++++++++++",
".++++++++++++++++++++++++++++++++++++++++++",
" .+++++++++++++++++++++++++++++++++++++++++",
"  .++++++++++++++++++++++++++++++++++++++++",
"   ........................................",
"                                           ",
"                                           ",
"                                           ",
"                                           ",
"                                           ",
"                                           ",
"                                           ",
"                                           ",
"                                           ",
"                                           ",
"                                           ",
"                                           ",
"                                           ",
"                                           "};
