/* XPM */
static char * top_left_active_xpm[] = {
"12 45 2 1",
" 	c None",
".	c #e7d0e5",
"     .......",
"   .........",
"  ..........",
" ...........",
" ...........",
"............",
"............",
"............",
"............",
"............",
"............",
"............",
"............",
"............",
"............",
"............",
"............",
"............",
"............",
"............",
"............",
"............",
"............",
"............",
"............",
"............",
"............",
"............",
"............",
"............",
"............",
"............",
"............",
"............",
"............",
"............",
"............",
"............",
"............",
"............",
"............",
"............",
"............",
"............",
"............"};
