/* XPM */
static char * shade_active_xpm[] = {
"26 30 2 1",
" 	c None",
".	c #c3b4c5",
"                          ",
"                          ",
"                          ",
"                          ",
"     ................     ",
"    ..................    ",
"   ....................   ",
"  ......................  ",
"  ......................  ",
"  ......................  ",
"  ......................  ",
"  ......................  ",
"  ......................  ",
"  ......................  ",
"  ......................  ",
"  ......................  ",
"  ......................  ",
"  ......................  ",
"  ......................  ",
"  ......................  ",
"  ......................  ",
"  ......................  ",
"  ......................  ",
"   ....................   ",
"    ..................    ",
"     ................     ",
"                          ",
"                          ",
"                          ",
"                          "};
