/* XPM */
static char * hide_inactive_xpm[] = {
"43 45 2 1",
" 	c None",
".	c #a8c8c8",
"...........................................",
"...........................................",
"...........................................",
"...........................................",
"...........................................",
"...........................................",
"...........................................",
"...........................................",
"...........................................",
"...........................................",
"...........................................",
"...........................................",
"...........................................",
"...........................................",
"...........................................",
"...........................................",
"...........................................",
"...........................................",
"...........................................",
"...........................................",
"...........................................",
"...........................................",
"...........................................",
"...........................................",
"...........................................",
"...........................................",
"...........................................",
"...........................................",
" ..........................................",
"  .........................................",
"   ........................................",
"                                           ",
"                                           ",
"                                           ",
"                                           ",
"                                           ",
"                                           ",
"                                           ",
"                                           ",
"                                           ",
"                                           ",
"                                           ",
"                                           ",
"                                           ",
"                                           "};
