/* XPM */
static char * top_right_inactive_xpm[] = {
"12 45 2 1",
" 	c None",
".	c #a8c8c8",
".......     ",
".........   ",
"..........  ",
"........... ",
"........... ",
"............",
"............",
"............",
"............",
"............",
"............",
"............",
"............",
"............",
"............",
"............",
"............",
"............",
"............",
"............",
"............",
"............",
"............",
"............",
"............",
"............",
"............",
"............",
"............",
"............",
"............",
"............",
"............",
"............",
"............",
"............",
"............",
"............",
"............",
"............",
"............",
"............",
"............",
"............",
"............"};
