/* XPM */
static char * close_inactive_xpm[] = {
"49 30 2 1",
" 	c None",
".	c #e3c595",
".................................................",
".................................................",
".................................................",
".................................................",
".................................................",
".................................................",
".................................................",
".................................................",
".................................................",
".................................................",
".................................................",
".................................................",
".................................................",
".................................................",
".................................................",
".................................................",
".................................................",
".................................................",
"................................................ ",
"...............................................  ",
"..............................................   ",
"                                                 ",
"                                                 ",
"                                                 ",
"                                                 ",
"                                                 ",
"                                                 ",
"                                                 ",
"                                                 ",
"                                                 "};
