/* XPM */
static char * hide_inactive_xpm[] = {
"29 30 2 1",
" 	c None",
".	c #5B92CF",
".............................",
".............................",
".............................",
".............................",
".............................",
".............................",
".............................",
".............................",
".............................",
".............................",
".............................",
".............................",
".............................",
".............................",
".............................",
".............................",
".............................",
".............................",
" ............................",
"  ...........................",
"   ..........................",
"                             ",
"                             ",
"                             ",
"                             ",
"                             ",
"                             ",
"                             ",
"                             ",
"                             "};
