/* XPM */
static char * menu_inactive_xpm[] = {
"20 30 64 1",
" 	c None",
".	c #527ABB",
"+	c #517ABC",
"@	c #5179BB",
"#	c #5179BC",
"$	c #5279BC",
"%	c #5279BB",
"&	c #527BBC",
"*	c #527ABD",
"=	c #527BBD",
"-	c #527ABC",
";	c #527CBD",
">	c #537CBE",
",	c #537DBD",
"'	c #527DBE",
")	c #527CBE",
"!	c #537DBE",
"~	c #537EBE",
"{	c #537DBF",
"]	c #547FBF",
"^	c #537EBF",
"/	c #537EC0",
"(	c #537FC0",
"_	c #547FC0",
":	c #5380C0",
"<	c #5480C1",
"[	c #5481C1",
"}	c #5480C0",
"|	c #5482C2",
"1	c #5581C2",
"2	c #5481C2",
"3	c #5582C2",
"4	c #5583C3",
"5	c #5583C2",
"6	c #5583C4",
"7	c #5584C3",
"8	c #5684C4",
"9	c #5685C4",
"0	c #5584C4",
"a	c #5685C5",
"b	c #5585C4",
"c	c #5686C5",
"d	c #5786C6",
"e	c #5787C6",
"f	c #5687C6",
"g	c #5686C6",
"h	c #5788C7",
"i	c #5688C6",
"j	c #5788C6",
"k	c #5787C7",
"l	c #5789C8",
"m	c #5888C8",
"n	c #5889C8",
"o	c #5789C7",
"p	c #5889C7",
"q	c #5788C8",
"r	c #588AC8",
"s	c #588AC9",
"t	c #5789C9",
"u	c #5889C9",
"v	c #588BC9",
"w	c #588CCA",
"x	c #598BCA",
"y	c #598CCA",
"                    ",
"                    ",
"                    ",
"                    ",
"                    ",
"..+++@@@@@##$$$@@%%%",
"&&***+++++==---+++++",
"==;;;=====&&========",
";;>>>,,''';;>>>))'''",
"!!~~~{{!!!~~'''!!'''",
"]]^^^^^^^^//^^^//^^^",
"(((((((___((___::(((",
"<<[[[}}[[[<<[[[[[[[[",
"||111[[222||111[[|||",
"3344433|||44|||33555",
"66444664447744488444",
"9999900aaaaabbb99aaa",
"cccccccccccccccddccc",
"eefffffgggggfffeefff",
"hheeeiihhhjjhhhhhkkk",
"llmmmnnooooopppmmqqq",
"rrsssrrlllnnrrrttuuu",
"vvvvvvvvvvvvvvvvvsss",
"wwxxxwwyyyyywwwyywww",
"                    ",
"                    ",
"                    ",
"                    ",
"                    ",
"                    "};
