/* XPM */
static char * menu_active_xpm[] = {
"20 30 73 1",
" 	c None",
".	c #2F5CB7",
"+	c #2F5DB7",
"@	c #2E5CB7",
"#	c #2E5DB7",
"$	c #2E5DB6",
"%	c #2F5EB8",
"&	c #2E5EB8",
"*	c #2F60B9",
"=	c #2F5FB9",
"-	c #305FB9",
";	c #2F61BA",
">	c #2F60BA",
",	c #3061BB",
"'	c #3061BA",
")	c #3063BB",
"!	c #3062BB",
"~	c #3062BC",
"{	c #3163BC",
"]	c #3064BD",
"^	c #3164BD",
"/	c #3064BC",
"(	c #3164BC",
"_	c #3165BD",
":	c #3165BE",
"<	c #3166BE",
"[	c #3166BD",
"}	c #3166BF",
"|	c #3266BE",
"1	c #3167BF",
"2	c #3167BE",
"3	c #3268C0",
"4	c #3269C0",
"5	c #3168C0",
"6	c #3268BF",
"7	c #3269C1",
"8	c #326AC1",
"9	c #336AC1",
"0	c #326AC0",
"a	c #336BC2",
"b	c #326BC2",
"c	c #336BC1",
"d	c #326BC1",
"e	c #336CC3",
"f	c #336DC3",
"g	c #346CC3",
"h	c #336EC4",
"i	c #346EC4",
"j	c #346EC5",
"k	c #346FC5",
"l	c #3470C6",
"m	c #3470C5",
"n	c #3471C6",
"o	c #3571C7",
"p	c #3571C6",
"q	c #3570C6",
"r	c #3572C8",
"s	c #3573C8",
"t	c #3572C7",
"u	c #3573C7",
"v	c #3573C9",
"w	c #3574C9",
"x	c #3673C8",
"y	c #3574C8",
"z	c #3675CA",
"A	c #3675C9",
"B	c #3575CA",
"C	c #3676CA",
"D	c #3676CB",
"E	c #3677CB",
"F	c #3777CA",
"G	c #3778CC",
"H	c #3678CC",
"                    ",
"                    ",
"                    ",
"                    ",
"                    ",
"..+++@@...#####$$###",
"%%%%%&&%%%%%&&&%%%%%",
"**========--********",
";;>>>,,''''';;;,,,,,",
"))!!!~~~~~!!!!!)))))",
"{{]]]^^///((///(((((",
"__:::::<<<[[[[[::___",
"}}}}}||1111122211111",
"33333443335566644333",
"77888990008877788888",
"aaaaaaaaaaaabbbccddd",
"eefffffgggggfffggeee",
"hhiiiiihhhjjhhhhhiii",
"kklllmmkkkmmmmmkkmmm",
"nnooooopppoonnnnnqqq",
"rrrrrrrrrrrrsssttuuu",
"vvwwwvvxxxssyyyyywww",
"zzAAAzzBBBAAAAAAACCC",
"DDDDDDDCCCEEFFFEECCC",
"GGHHHGGHHHGGGGGGGHHH",
"                    ",
"                    ",
"                    ",
"                    ",
"                    "};
