/* XPM */
static char * shade_inactive_xpm[] = {
"26 30 2 1",
" 	c None",
".	c #5B92CF",
"                          ",
"                          ",
"                          ",
"                          ",
"     ................     ",
"    ..................    ",
"   ....................   ",
"  ......................  ",
"  ......................  ",
"  ......................  ",
"  ......................  ",
"  ......................  ",
"  ......................  ",
"  ......................  ",
"  ......................  ",
"  ......................  ",
"  ......................  ",
"  ......................  ",
"  ......................  ",
"  ......................  ",
"  ......................  ",
"  ......................  ",
"  ......................  ",
"   ....................   ",
"    ..................    ",
"     ................     ",
"                          ",
"                          ",
"                          ",
"                          "};
