/* XPM */
static char * top_left_inactive_xpm[] = {
"8 30 92 2",
"  	c None",
". 	c #4F74B7",
"+ 	c #4F75B8",
"@ 	c #5075B8",
"# 	c #4F75B7",
"$ 	c #5076B9",
"% 	c #5077B9",
"& 	c #5077BA",
"* 	c #5078BA",
"= 	c #5179BB",
"- 	c #5079BB",
"; 	c #5178BB",
"> 	c #5178BA",
", 	c #527ABB",
"' 	c #517ABC",
") 	c #5179BC",
"! 	c #5279BC",
"~ 	c #5279BB",
"{ 	c #527BBC",
"] 	c #527ABD",
"^ 	c #527BBD",
"/ 	c #527ABC",
"( 	c #527CBD",
"_ 	c #537CBE",
": 	c #537DBD",
"< 	c #527DBE",
"[ 	c #527CBE",
"} 	c #537DBE",
"| 	c #537EBE",
"1 	c #537DBF",
"2 	c #547FBF",
"3 	c #537EBF",
"4 	c #537EC0",
"5 	c #537FC0",
"6 	c #547FC0",
"7 	c #5380C0",
"8 	c #5480C1",
"9 	c #5481C1",
"0 	c #5480C0",
"a 	c #5482C2",
"b 	c #5581C2",
"c 	c #5481C2",
"d 	c #5582C2",
"e 	c #5583C3",
"f 	c #5583C2",
"g 	c #5583C4",
"h 	c #5584C3",
"i 	c #5684C4",
"j 	c #5685C4",
"k 	c #5584C4",
"l 	c #5685C5",
"m 	c #5585C4",
"n 	c #5686C5",
"o 	c #5786C6",
"p 	c #5787C6",
"q 	c #5687C6",
"r 	c #5686C6",
"s 	c #5788C7",
"t 	c #5688C6",
"u 	c #5788C6",
"v 	c #5787C7",
"w 	c #5789C8",
"x 	c #5888C8",
"y 	c #5889C8",
"z 	c #5789C7",
"A 	c #5889C7",
"B 	c #5788C8",
"C 	c #588AC8",
"D 	c #588AC9",
"E 	c #5789C9",
"F 	c #5889C9",
"G 	c #588BC9",
"H 	c #588CCA",
"I 	c #598BCA",
"J 	c #598CCA",
"K 	c #588CCB",
"L 	c #598DCB",
"M 	c #598DCA",
"N 	c #598DCC",
"O 	c #5A8ECC",
"P 	c #5A8ECB",
"Q 	c #5A8DCC",
"R 	c #598ECC",
"S 	c #5A8FCC",
"T 	c #598FCC",
"U 	c #5A8FCD",
"V 	c #5A90CD",
"W 	c #5A90CE",
"X 	c #5A91CE",
"Y 	c #5B91CE",
"Z 	c #5B90CE",
"` 	c #5B92CF",
"          . . . ",
"      + @ # @ + ",
"    $ $ $ $ % $ ",
"  & * & % & % % ",
"  = - ; > > * ; ",
", ' = = ) ! = ~ ",
"{ ] ' ' ^ / ' ' ",
"^ ( ^ ^ { ^ ^ ^ ",
"( _ : < ( _ [ < ",
"} | 1 } | < } < ",
"2 3 3 3 4 3 4 3 ",
"5 5 5 6 5 6 7 5 ",
"8 9 0 9 8 9 9 9 ",
"a b 9 c a b 9 a ",
"d e d a e a d f ",
"g e g e h e i e ",
"j j k l l m j l ",
"n n n n n n o n ",
"p q q r r q p q ",
"s p t s u s s v ",
"w x y z z A x B ",
"C D C w y C E F ",
"G G G G G G G D ",
"H I H J J H J H ",
"K L L M L L M L ",
"N O P L O Q N R ",
"O S O T U T S U ",
"V V V U V V U W ",
"X X Y Z Y W X X ",
"` ` ` ` ` ` ` ` "};
