/* XPM */
static char * top_left_active_xpm[] = {
"8 30 106 2",
"  	c None",
". 	c #2C56B1",
"+ 	c #2C55B2",
"@ 	c #2C55B1",
"# 	c #2D56B3",
"$ 	c #2D57B2",
"% 	c #2C57B2",
"& 	c #2D56B2",
"* 	c #2D58B3",
"= 	c #2D59B4",
"- 	c #2D58B4",
"; 	c #2E5AB5",
"> 	c #2E5AB4",
", 	c #2D5AB5",
"' 	c #2D5AB4",
") 	c #2E5CB6",
"! 	c #2E5BB5",
"~ 	c #2E5BB6",
"{ 	c #2D5BB5",
"] 	c #2F5CB7",
"^ 	c #2F5DB7",
"/ 	c #2E5CB7",
"( 	c #2E5DB7",
"_ 	c #2E5DB6",
": 	c #2F5EB8",
"< 	c #2E5EB8",
"[ 	c #2F60B9",
"} 	c #2F5FB9",
"| 	c #305FB9",
"1 	c #2F61BA",
"2 	c #2F60BA",
"3 	c #3061BB",
"4 	c #3061BA",
"5 	c #3063BB",
"6 	c #3062BB",
"7 	c #3062BC",
"8 	c #3163BC",
"9 	c #3064BD",
"0 	c #3164BD",
"a 	c #3064BC",
"b 	c #3164BC",
"c 	c #3165BD",
"d 	c #3165BE",
"e 	c #3166BE",
"f 	c #3166BD",
"g 	c #3166BF",
"h 	c #3266BE",
"i 	c #3167BF",
"j 	c #3167BE",
"k 	c #3268C0",
"l 	c #3269C0",
"m 	c #3168C0",
"n 	c #3268BF",
"o 	c #3269C1",
"p 	c #326AC1",
"q 	c #336AC1",
"r 	c #326AC0",
"s 	c #336BC2",
"t 	c #326BC2",
"u 	c #336BC1",
"v 	c #326BC1",
"w 	c #336CC3",
"x 	c #336DC3",
"y 	c #346CC3",
"z 	c #336EC4",
"A 	c #346EC4",
"B 	c #346EC5",
"C 	c #346FC5",
"D 	c #3470C6",
"E 	c #3470C5",
"F 	c #3471C6",
"G 	c #3571C7",
"H 	c #3571C6",
"I 	c #3570C6",
"J 	c #3572C8",
"K 	c #3573C8",
"L 	c #3572C7",
"M 	c #3573C7",
"N 	c #3573C9",
"O 	c #3574C9",
"P 	c #3673C8",
"Q 	c #3574C8",
"R 	c #3675CA",
"S 	c #3675C9",
"T 	c #3575CA",
"U 	c #3676CA",
"V 	c #3676CB",
"W 	c #3677CB",
"X 	c #3777CA",
"Y 	c #3778CC",
"Z 	c #3678CC",
"` 	c #377ACD",
" .	c #3779CD",
"..	c #377BCE",
"+.	c #387BCE",
"@.	c #387CCF",
"#.	c #387CD0",
"$.	c #387DCF",
"%.	c #387ED1",
"&.	c #387ED0",
"*.	c #387DD0",
"=.	c #3980D2",
"-.	c #397FD2",
";.	c #3880D2",
">.	c #397FD1",
",.	c #3980D1",
"          . + @ ",
"      # $ % % & ",
"    * = * * * - ",
"  ; > ; , , ' ' ",
"  ) ! ~ { ~ ~ ) ",
"] ^ / ] ( ( _ ( ",
": : < : : < : : ",
"[ } } } | [ [ [ ",
"1 2 3 4 4 1 3 3 ",
"5 6 7 7 6 6 5 5 ",
"8 9 0 a b a b b ",
"c d d e f f d c ",
"g g h i i j i i ",
"k k l k m n l k ",
"o p q r p o p p ",
"s s s s s t u v ",
"w x x y y x y w ",
"z A A z B z z A ",
"C D E C E E C E ",
"F G G H G F F I ",
"J J J J J K L M ",
"N O N P K Q Q O ",
"R S R T S S S U ",
"V V V U W X W U ",
"Y Z Y Z Y Y Y Z ",
"`  .`  .` ` ` ` ",
"..+.+.....+...+.",
"@.@.@.@.#.#.$.#.",
"%.&.*.&.&.&.*.&.",
"=.-.;.>.=.,.,.;."};
