/* XPM */
static char * top_right_active_xpm[] = {
"8 30 106 2",
"  	c None",
". 	c #2C55B1",
"+ 	c #2C55B2",
"@ 	c #2C56B1",
"# 	c #2D56B2",
"$ 	c #2C57B2",
"% 	c #2D57B2",
"& 	c #2D56B3",
"* 	c #2D58B4",
"= 	c #2D58B3",
"- 	c #2D59B4",
"; 	c #2D5AB4",
"> 	c #2D5AB5",
", 	c #2E5AB5",
"' 	c #2E5AB4",
") 	c #2E5CB6",
"! 	c #2E5BB6",
"~ 	c #2D5BB5",
"{ 	c #2E5BB5",
"] 	c #2E5DB7",
"^ 	c #2E5DB6",
"/ 	c #2F5CB7",
"( 	c #2E5CB7",
"_ 	c #2F5DB7",
": 	c #2F5EB8",
"< 	c #2E5EB8",
"[ 	c #2F60B9",
"} 	c #305FB9",
"| 	c #2F5FB9",
"1 	c #3061BB",
"2 	c #2F61BA",
"3 	c #3061BA",
"4 	c #2F60BA",
"5 	c #3063BB",
"6 	c #3062BB",
"7 	c #3062BC",
"8 	c #3164BC",
"9 	c #3064BC",
"0 	c #3164BD",
"a 	c #3064BD",
"b 	c #3163BC",
"c 	c #3165BD",
"d 	c #3165BE",
"e 	c #3166BD",
"f 	c #3166BE",
"g 	c #3167BF",
"h 	c #3167BE",
"i 	c #3266BE",
"j 	c #3166BF",
"k 	c #3268C0",
"l 	c #3269C0",
"m 	c #3268BF",
"n 	c #3168C0",
"o 	c #326AC1",
"p 	c #3269C1",
"q 	c #326AC0",
"r 	c #336AC1",
"s 	c #326BC1",
"t 	c #336BC1",
"u 	c #326BC2",
"v 	c #336BC2",
"w 	c #336CC3",
"x 	c #346CC3",
"y 	c #336DC3",
"z 	c #346EC4",
"A 	c #336EC4",
"B 	c #346EC5",
"C 	c #3470C5",
"D 	c #346FC5",
"E 	c #3470C6",
"F 	c #3570C6",
"G 	c #3471C6",
"H 	c #3571C7",
"I 	c #3571C6",
"J 	c #3573C7",
"K 	c #3572C7",
"L 	c #3573C8",
"M 	c #3572C8",
"N 	c #3574C9",
"O 	c #3574C8",
"P 	c #3673C8",
"Q 	c #3573C9",
"R 	c #3676CA",
"S 	c #3675C9",
"T 	c #3575CA",
"U 	c #3675CA",
"V 	c #3677CB",
"W 	c #3777CA",
"X 	c #3676CB",
"Y 	c #3678CC",
"Z 	c #3778CC",
"` 	c #377ACD",
" .	c #3779CD",
"..	c #387BCE",
"+.	c #377BCE",
"@.	c #387CD0",
"#.	c #387DCF",
"$.	c #387CCF",
"%.	c #387ED0",
"&.	c #387DD0",
"*.	c #387ED1",
"=.	c #3880D2",
"-.	c #3980D1",
";.	c #3980D2",
">.	c #397FD1",
",.	c #397FD2",
". + @           ",
"# $ $ % &       ",
"* = = = - =     ",
"; ; > > , ' ,   ",
") ! ! ~ ! { )   ",
"] ^ ] ] / ( _ / ",
": : < : : < : : ",
"[ [ [ } | | | [ ",
"1 1 2 3 3 1 4 2 ",
"5 5 6 6 7 7 6 5 ",
"8 8 9 8 9 0 a b ",
"c d e e f d d c ",
"g g h g g i j j ",
"k l m n k l k k ",
"o o p o q r o p ",
"s t u v v v v v ",
"w x y x x y y w ",
"z A A B A z z A ",
"C D C C D C E D ",
"F G G H I H H G ",
"J K L M M M M M ",
"N O O L P Q N Q ",
"R S S S T U S U ",
"R V W V R X X X ",
"Y Z Z Z Y Z Y Z ",
"` ` ` `  .`  .` ",
"..+...+.+.....+.",
"@.#.@.@.$.$.$.$.",
"%.&.%.%.%.&.%.*.",
"=.-.-.;.>.=.,.;."};
