/* XPM */
static char * top_right_inactive_xpm[] = {
"8 30 92 2",
"  	c None",
". 	c #4F74B7",
"+ 	c #4F75B8",
"@ 	c #5075B8",
"# 	c #4F75B7",
"$ 	c #5076B9",
"% 	c #5077B9",
"& 	c #5077BA",
"* 	c #5078BA",
"= 	c #5178BB",
"- 	c #5178BA",
"; 	c #5079BB",
"> 	c #5179BB",
", 	c #5279BB",
"' 	c #5279BC",
") 	c #5179BC",
"! 	c #517ABC",
"~ 	c #527ABB",
"{ 	c #527ABC",
"] 	c #527BBD",
"^ 	c #527ABD",
"/ 	c #527BBC",
"( 	c #527CBD",
"_ 	c #527DBE",
": 	c #527CBE",
"< 	c #537CBE",
"[ 	c #537DBD",
"} 	c #537DBE",
"| 	c #537EBE",
"1 	c #537DBF",
"2 	c #537EBF",
"3 	c #537EC0",
"4 	c #547FBF",
"5 	c #537FC0",
"6 	c #5380C0",
"7 	c #547FC0",
"8 	c #5481C1",
"9 	c #5480C1",
"0 	c #5480C0",
"a 	c #5482C2",
"b 	c #5581C2",
"c 	c #5481C2",
"d 	c #5583C2",
"e 	c #5582C2",
"f 	c #5583C3",
"g 	c #5684C4",
"h 	c #5584C3",
"i 	c #5583C4",
"j 	c #5685C5",
"k 	c #5685C4",
"l 	c #5585C4",
"m 	c #5584C4",
"n 	c #5686C5",
"o 	c #5786C6",
"p 	c #5687C6",
"q 	c #5787C6",
"r 	c #5686C6",
"s 	c #5787C7",
"t 	c #5788C7",
"u 	c #5788C6",
"v 	c #5688C6",
"w 	c #5788C8",
"x 	c #5888C8",
"y 	c #5889C7",
"z 	c #5789C7",
"A 	c #5889C8",
"B 	c #5789C8",
"C 	c #5889C9",
"D 	c #5789C9",
"E 	c #588AC8",
"F 	c #588AC9",
"G 	c #588BC9",
"H 	c #588CCA",
"I 	c #598CCA",
"J 	c #598BCA",
"K 	c #598DCB",
"L 	c #598DCA",
"M 	c #588CCB",
"N 	c #598ECC",
"O 	c #598DCC",
"P 	c #5A8DCC",
"Q 	c #5A8ECC",
"R 	c #5A8ECB",
"S 	c #5A8FCD",
"T 	c #5A8FCC",
"U 	c #598FCC",
"V 	c #5A90CE",
"W 	c #5A90CD",
"X 	c #5A91CE",
"Y 	c #5B91CE",
"Z 	c #5B90CE",
"` 	c #5B92CF",
". . .           ",
"+ @ # @ +       ",
"$ % $ $ $ $     ",
"% % & % & * &   ",
"= * - - = ; >   ",
", > ' ) > > ! ~ ",
"! ! { ] ! ! ^ / ",
"] ] ] / ] ] ( ] ",
"_ : < ( _ [ < ( ",
"_ } _ | } 1 | } ",
"2 3 2 3 2 2 2 4 ",
"5 6 7 5 7 5 5 5 ",
"8 8 8 9 8 0 8 9 ",
"a 8 b a c 8 b a ",
"d e a f a e f e ",
"f g f h f i f i ",
"j k l j j m k k ",
"n o n n n n n n ",
"p q p r r p p q ",
"s t t u t v q t ",
"w x y z z A x B ",
"C D E A B E F E ",
"F G G G G G G G ",
"H I H I I H J H ",
"K L K K L K K M ",
"N O P Q K R Q O ",
"S T U S U Q T Q ",
"V S W W S W W W ",
"X X V Y Z Y X X ",
"` ` ` ` ` ` ` ` "};
