/* XPM */
static char * title_1_active_xpm[] = {
"12 45 108 2",
"  	c #2C55B2",
". 	c #2C56B1",
"+ 	c #2C55B1",
"@ 	c #2C57B3",
"# 	c #2C57B2",
"$ 	c #2D56B3",
"% 	c #2D57B2",
"& 	c #2D56B2",
"* 	c #2D58B4",
"= 	c #2D58B3",
"- 	c #2D59B4",
"; 	c #2D59B5",
"> 	c #2E5AB5",
", 	c #2E5AB4",
"' 	c #2D5AB5",
") 	c #2D5AB4",
"! 	c #2D5BB6",
"~ 	c #2E5CB6",
"{ 	c #2E5BB5",
"] 	c #2E5BB6",
"^ 	c #2D5BB5",
"/ 	c #2F5CB7",
"( 	c #2F5DB7",
"_ 	c #2E5CB7",
": 	c #2E5DB7",
"< 	c #2E5DB6",
"[ 	c #2F5EB8",
"} 	c #2E5EB8",
"| 	c #2F60B9",
"1 	c #2F5FB9",
"2 	c #305FB9",
"3 	c #2F61BA",
"4 	c #2F60BA",
"5 	c #3061BB",
"6 	c #3061BA",
"7 	c #3063BB",
"8 	c #3062BB",
"9 	c #3062BC",
"0 	c #3163BC",
"a 	c #3064BD",
"b 	c #3164BD",
"c 	c #3064BC",
"d 	c #3164BC",
"e 	c #3165BD",
"f 	c #3165BE",
"g 	c #3166BE",
"h 	c #3166BD",
"i 	c #3166BF",
"j 	c #3266BE",
"k 	c #3167BF",
"l 	c #3167BE",
"m 	c #3268C0",
"n 	c #3269C0",
"o 	c #3168C0",
"p 	c #3268BF",
"q 	c #3269C1",
"r 	c #326AC1",
"s 	c #336AC1",
"t 	c #326AC0",
"u 	c #336BC2",
"v 	c #326BC2",
"w 	c #336BC1",
"x 	c #326BC1",
"y 	c #336CC3",
"z 	c #336DC3",
"A 	c #346CC3",
"B 	c #336EC4",
"C 	c #346EC4",
"D 	c #346EC5",
"E 	c #346FC5",
"F 	c #3470C6",
"G 	c #3470C5",
"H 	c #3471C6",
"I 	c #3571C7",
"J 	c #3571C6",
"K 	c #3570C6",
"L 	c #3572C8",
"M 	c #3573C8",
"N 	c #3572C7",
"O 	c #3573C7",
"P 	c #3573C9",
"Q 	c #3574C9",
"R 	c #3673C8",
"S 	c #3574C8",
"T 	c #3675CA",
"U 	c #3675C9",
"V 	c #3575CA",
"W 	c #3676CA",
"X 	c #3676CB",
"Y 	c #3677CB",
"Z 	c #3777CA",
"` 	c #3778CC",
" .	c #3678CC",
"..	c #377ACD",
"+.	c #3779CD",
"@.	c #377BCE",
"#.	c #387BCE",
"$.	c #387CCF",
"%.	c #387CD0",
"&.	c #387DCF",
"*.	c #387ED1",
"=.	c #387ED0",
"-.	c #387DD0",
";.	c #3980D2",
">.	c #397FD2",
",.	c #3880D2",
"'.	c #397FD1",
").	c #3980D1",
"      . + + + . .   + + ",
"@ # # # $ $ % # # # & & ",
"@ # # # $ $ % # # # & & ",
"* * * = - - = = = = * * ",
"; > > , > > ' ' ' ) ) ) ",
"; > > , > > ' ' ' ) ) ) ",
"! ~ ~ { ] ] ^ ] ] ] ~ ~ ",
"/ ( ( _ / / : : : < : : ",
"/ ( ( _ / / : : : < : : ",
"[ [ [ } [ [ [ } } [ [ [ ",
"| 1 1 1 1 1 2 | | | | | ",
"| 1 1 1 1 1 2 | | | | | ",
"3 4 4 5 6 6 6 3 3 5 5 5 ",
"7 8 8 9 9 9 8 8 8 7 7 7 ",
"7 8 8 9 9 9 8 8 8 7 7 7 ",
"0 a a b c c d c c d d d ",
"e f f f g g h h h f e e ",
"e f f f g g h h h f e e ",
"i i i j k k k l l k k k ",
"m m m n m m o p p n m m ",
"m m m n m m o p p n m m ",
"q r r s t t r q q r r r ",
"u u u u u u u v v w x x ",
"u u u u u u u v v w x x ",
"y z z z A A A z z A y y ",
"B C C C B B D B B B C C ",
"B C C C B B D B B B C C ",
"E F F G E E G G G E G G ",
"H I I I J J I H H H K K ",
"H I I I J J I H H H K K ",
"L L L L L L L M M N O O ",
"P Q Q P R R M S S S Q Q ",
"P Q Q P R R M S S S Q Q ",
"T U U T V V U U U U W W ",
"X X X X W W Y Z Z Y W W ",
"X X X X W W Y Z Z Y W W ",
"`  . .`  . .` ` ` `  . .",
"..+.+...+.+.............",
"..+.+...+.+.............",
"@.#.#.#.@.@.@.#.#.@.#.#.",
"$.$.$.$.$.$.%.%.%.&.%.%.",
"$.$.$.$.$.$.%.%.%.&.%.%.",
"*.=.=.-.=.=.=.=.=.-.=.=.",
";.>.>.,.'.'.;.).).).,.,.",
";.>.>.,.'.'.;.).).).,.,."};
