/* XPM */
static char * top_right_inactive_xpm[] = {
"12 45 95 2",
"  	c None",
". 	c #4E74B7",
"+ 	c #4F74B7",
"@ 	c #4F75B8",
"# 	c #4F75B7",
"$ 	c #5075B8",
"% 	c #5077B9",
"& 	c #5076B9",
"* 	c #5177BA",
"= 	c #5077BA",
"- 	c #5078BA",
"; 	c #5079BA",
"> 	c #5179BB",
", 	c #5079BB",
"' 	c #5178BB",
") 	c #5178BA",
"! 	c #527ABB",
"~ 	c #517ABC",
"{ 	c #5179BC",
"] 	c #5279BC",
"^ 	c #5279BB",
"/ 	c #527BBC",
"( 	c #527ABD",
"_ 	c #527BBD",
": 	c #527ABC",
"< 	c #527CBD",
"[ 	c #537CBE",
"} 	c #537DBD",
"| 	c #527DBE",
"1 	c #527CBE",
"2 	c #537DBE",
"3 	c #537EBE",
"4 	c #537DBF",
"5 	c #547FBF",
"6 	c #537EBF",
"7 	c #537EC0",
"8 	c #537FC0",
"9 	c #547FC0",
"0 	c #5380C0",
"a 	c #5480C1",
"b 	c #5481C1",
"c 	c #5480C0",
"d 	c #5482C2",
"e 	c #5581C2",
"f 	c #5481C2",
"g 	c #5582C2",
"h 	c #5583C3",
"i 	c #5583C2",
"j 	c #5583C4",
"k 	c #5584C3",
"l 	c #5684C4",
"m 	c #5685C4",
"n 	c #5584C4",
"o 	c #5685C5",
"p 	c #5585C4",
"q 	c #5686C5",
"r 	c #5786C6",
"s 	c #5787C6",
"t 	c #5687C6",
"u 	c #5686C6",
"v 	c #5788C7",
"w 	c #5688C6",
"x 	c #5788C6",
"y 	c #5787C7",
"z 	c #5789C8",
"A 	c #5888C8",
"B 	c #5889C8",
"C 	c #5789C7",
"D 	c #5889C7",
"E 	c #5788C8",
"F 	c #588AC8",
"G 	c #588AC9",
"H 	c #5789C9",
"I 	c #5889C9",
"J 	c #588BC9",
"K 	c #588CCA",
"L 	c #598BCA",
"M 	c #598CCA",
"N 	c #588CCB",
"O 	c #598DCB",
"P 	c #598DCA",
"Q 	c #598DCC",
"R 	c #5A8ECC",
"S 	c #5A8ECB",
"T 	c #5A8DCC",
"U 	c #598ECC",
"V 	c #5A8FCC",
"W 	c #598FCC",
"X 	c #5A8FCD",
"Y 	c #5A90CD",
"Z 	c #5A90CE",
"` 	c #5A91CE",
" .	c #5B91CE",
"..	c #5B90CE",
"+.	c #5B92CF",
". + + + + + +           ",
"@ @ @ # @ @ $ # #       ",
"@ @ @ # @ @ $ # # $     ",
"% & & & & & & & & % &   ",
"* = = - = = % = = % %   ",
"* = = - = = % = = % % % ",
"; > > , ' ' ) ) ) - ' ' ",
"! ~ ~ > > > { ] ] > ^ ^ ",
"! ~ ~ > > > { ] ] > ^ ^ ",
"/ ( ( ~ ~ ~ _ : : ~ ~ ~ ",
"_ < < _ _ _ / _ _ _ _ _ ",
"_ < < _ _ _ / _ _ _ _ _ ",
"< [ [ } | | < [ [ 1 | | ",
"2 3 3 4 2 2 3 | | 2 | | ",
"2 3 3 4 2 2 3 | | 2 | | ",
"5 6 6 6 6 6 7 6 6 7 6 6 ",
"8 8 8 8 9 9 8 9 9 0 8 8 ",
"8 8 8 8 9 9 8 9 9 0 8 8 ",
"a b b c b b a b b b b b ",
"d e e b f f d e e b d d ",
"d e e b f f d e e b d d ",
"g h h g d d h d d g i i ",
"j h h j h h k h h l h h ",
"j h h j h h k h h l h h ",
"m m m n o o o p p m o o ",
"q q q q q q q q q r q q ",
"q q q q q q q q q r q q ",
"s t t t u u u t t s t t ",
"v s s w v v x v v v y y ",
"v s s w v v x v v v y y ",
"z A A B C C C D D A E E ",
"F G G F z z B F F H I I ",
"F G G F z z B F F H I I ",
"J J J J J J J J J J G G ",
"K L L K M M M K K M K K ",
"K L L K M M M K K M K K ",
"N O O O P P O O O P O O ",
"Q R R S O O R T T Q U U ",
"Q R R S O O R T T Q U U ",
"R V V R W W X W W V X X ",
"Y Y Y Y X X Y Y Y X Z Z ",
"Y Y Y Y X X Y Y Y X Z Z ",
"` ` `  ..... .Z Z ` ` ` ",
"+.+.+.+.+.+.+.+.+.+.+.+.",
"+.+.+.+.+.+.+.+.+.+.+.+."};
