/* XPM */
static char * top_left_inactive_xpm[] = {
"12 45 94 2",
"  	c None",
". 	c #4F74B7",
"+ 	c #4F75B7",
"@ 	c #4F75B8",
"# 	c #5075B8",
"$ 	c #5076B9",
"% 	c #5077B9",
"& 	c #5077BA",
"* 	c #5078BA",
"= 	c #5177BA",
"- 	c #5079BA",
"; 	c #5179BB",
"> 	c #5079BB",
", 	c #5178BB",
"' 	c #5178BA",
") 	c #527ABB",
"! 	c #517ABC",
"~ 	c #5179BC",
"{ 	c #5279BC",
"] 	c #5279BB",
"^ 	c #527BBC",
"/ 	c #527ABD",
"( 	c #527BBD",
"_ 	c #527ABC",
": 	c #527CBD",
"< 	c #537CBE",
"[ 	c #537DBD",
"} 	c #527DBE",
"| 	c #527CBE",
"1 	c #537DBE",
"2 	c #537EBE",
"3 	c #537DBF",
"4 	c #547FBF",
"5 	c #537EBF",
"6 	c #537EC0",
"7 	c #537FC0",
"8 	c #547FC0",
"9 	c #5380C0",
"0 	c #5480C1",
"a 	c #5481C1",
"b 	c #5480C0",
"c 	c #5482C2",
"d 	c #5581C2",
"e 	c #5481C2",
"f 	c #5582C2",
"g 	c #5583C3",
"h 	c #5583C2",
"i 	c #5583C4",
"j 	c #5584C3",
"k 	c #5684C4",
"l 	c #5685C4",
"m 	c #5584C4",
"n 	c #5685C5",
"o 	c #5585C4",
"p 	c #5686C5",
"q 	c #5786C6",
"r 	c #5787C6",
"s 	c #5687C6",
"t 	c #5686C6",
"u 	c #5788C7",
"v 	c #5688C6",
"w 	c #5788C6",
"x 	c #5787C7",
"y 	c #5789C8",
"z 	c #5888C8",
"A 	c #5889C8",
"B 	c #5789C7",
"C 	c #5889C7",
"D 	c #5788C8",
"E 	c #588AC8",
"F 	c #588AC9",
"G 	c #5789C9",
"H 	c #5889C9",
"I 	c #588BC9",
"J 	c #588CCA",
"K 	c #598BCA",
"L 	c #598CCA",
"M 	c #588CCB",
"N 	c #598DCB",
"O 	c #598DCA",
"P 	c #598DCC",
"Q 	c #5A8ECC",
"R 	c #5A8ECB",
"S 	c #5A8DCC",
"T 	c #598ECC",
"U 	c #5A8FCC",
"V 	c #598FCC",
"W 	c #5A8FCD",
"X 	c #5A90CD",
"Y 	c #5A90CE",
"Z 	c #5A91CE",
"` 	c #5B91CE",
" .	c #5B90CE",
"..	c #5B92CF",
"          . . . . . . . ",
"      + @ @ # + + # @ @ ",
"    @ + @ @ # + + # @ @ ",
"  $ $ $ $ $ $ $ $ % $ $ ",
"  & & * & & % & & % % % ",
"= & & * & & % & & % % % ",
"- ; ; > , , ' ' ' * , , ",
") ! ! ; ; ; ~ { { ; ] ] ",
") ! ! ; ; ; ~ { { ; ] ] ",
"^ / / ! ! ! ( _ _ ! ! ! ",
"( : : ( ( ( ^ ( ( ( ( ( ",
"( : : ( ( ( ^ ( ( ( ( ( ",
": < < [ } } : < < | } } ",
"1 2 2 3 1 1 2 } } 1 } } ",
"1 2 2 3 1 1 2 } } 1 } } ",
"4 5 5 5 5 5 6 5 5 6 5 5 ",
"7 7 7 7 8 8 7 8 8 9 7 7 ",
"7 7 7 7 8 8 7 8 8 9 7 7 ",
"0 a a b a a 0 a a a a a ",
"c d d a e e c d d a c c ",
"c d d a e e c d d a c c ",
"f g g f c c g c c f h h ",
"i g g i g g j g g k g g ",
"i g g i g g j g g k g g ",
"l l l m n n n o o l n n ",
"p p p p p p p p p q p p ",
"p p p p p p p p p q p p ",
"r s s s t t t s s r s s ",
"u r r v u u w u u u x x ",
"u r r v u u w u u u x x ",
"y z z A B B B C C z D D ",
"E F F E y y A E E G H H ",
"E F F E y y A E E G H H ",
"I I I I I I I I I I F F ",
"J K K J L L L J J L J J ",
"J K K J L L L J J L J J ",
"M N N N O O N N N O N N ",
"P Q Q R N N Q S S P T T ",
"P Q Q R N N Q S S P T T ",
"Q U U Q V V W V V U W W ",
"X X X X W W X X X W Y Y ",
"X X X X W W X X X W Y Y ",
"Z Z Z `  . .` Y Y Z Z Z ",
"........................",
"........................"};
