/* XPM */
static char * hide_active_xpm[] = {
"43 45 2 1",
" 	c None",
".	c #e783bf",
"...........................................",
"...........................................",
"...........................................",
"...........................................",
"...........................................",
"...........................................",
"...........................................",
"...........................................",
"...........................................",
"...........................................",
"...........................................",
"...........................................",
"...........................................",
"...........................................",
"...........................................",
"...........................................",
"...........................................",
"...........................................",
"...........................................",
"...........................................",
"...........................................",
"...........................................",
"...........................................",
"...........................................",
"...........................................",
"...........................................",
"...........................................",
"...........................................",
" ..........................................",
"  .........................................",
"   ........................................",
"                                           ",
"                                           ",
"                                           ",
"                                           ",
"                                           ",
"                                           ",
"                                           ",
"                                           ",
"                                           ",
"                                           ",
"                                           ",
"                                           ",
"                                           ",
"                                           "};
