/* XPM */
static char * hide_active_xpm[] = {
"29 30 2 1",
" 	c None",
".	c #c3b4c5",
".............................",
".............................",
".............................",
".............................",
".............................",
".............................",
".............................",
".............................",
".............................",
".............................",
".............................",
".............................",
".............................",
".............................",
".............................",
".............................",
".............................",
".............................",
" ............................",
"  ...........................",
"   ..........................",
"                             ",
"                             ",
"                             ",
"                             ",
"                             ",
"                             ",
"                             ",
"                             ",
"                             "};
