/* XPM */
static char * hide_prelight_xpm[] = {
"29 30 3 1",
" 	c None",
".	c #724c4c",
"+	c #2996CC",
".............................",
".++++++++++++++++++++++++++++",
".++++++++++++++++++++++++++++",
".++++++++++++++++++++++++++++",
".++++++++++++++++++++++++++++",
".++++++++++++++++++++++++++++",
".++++++++++++++++++++++++++++",
".++++++++++++++++++++++++++++",
".++++++++++++++++++++++++++++",
".++++++++++++++++++++++++++++",
".++++++++++++++++++++++++++++",
".++++++++++++++++++++++++++++",
".++++++++++++++++++++++++++++",
".++++++++++++++++++++++++++++",
".++++++++++++++++++++++++++++",
".++++++++++++++++++++++++++++",
".++++++++++++++++++++++++++++",
".++++++++++++++++++++++++++++",
" .+++++++++++++++++++++++++++",
"  .++++++++++++++++++++++++++",
"   ..........................",
"                             ",
"                             ",
"                             ",
"                             ",
"                             ",
"                             ",
"                             ",
"                             ",
"                             "};
