/* XPM */
static char * top_right_active_xpm[] = {
"12 45 2 1",
" 	c None",
".	c #ce4444",
".......     ",
".........   ",
"..........  ",
"........... ",
"........... ",
"............",
"............",
"............",
"............",
"............",
"............",
"............",
"............",
"............",
"............",
"............",
"............",
"............",
"............",
"............",
"............",
"............",
"............",
"............",
"............",
"............",
"............",
"............",
"............",
"............",
"............",
"............",
"............",
"............",
"............",
"............",
"............",
"............",
"............",
"............",
"............",
"............",
"............",
"............",
"............"};
