/* XPM */
static char * hide_prelight_xpm[] = {
"43 45 3 1",
" 	c None",
".	c #e2da9d",
"+	c #2996CC",
"...........................................",
".++++++++++++++++++++++++++++++++++++++++++",
".++++++++++++++++++++++++++++++++++++++++++",
".++++++++++++++++++++++++++++++++++++++++++",
".++++++++++++++++++++++++++++++++++++++++++",
".++++++++++++++++++++++++++++++++++++++++++",
".++++++++++++++++++++++++++++++++++++++++++",
".++++++++++++++++++++++++++++++++++++++++++",
".++++++++++++++++++++++++++++++++++++++++++",
".++++++++++++++++++++++++++++++++++++++++++",
".++++++++++++++++++++++++++++++++++++++++++",
".++++++++++++++++++++++++++++++++++++++++++",
".++++++++++++++++++++++++++++++++++++++++++",
".++++++++++++++++++++++++++++++++++++++++++",
".++++++++++++++++++++++++++++++++++++++++++",
".++++++++++++++++++++++++++++++++++++++++++",
".++++++++++++++++++++++++++++++++++++++++++",
".++++++++++++++++++++++++++++++++++++++++++",
".++++++++++++++++++++++++++++++++++++++++++",
".++++++++++++++++++++++++++++++++++++++++++",
".++++++++++++++++++++++++++++++++++++++++++",
".++++++++++++++++++++++++++++++++++++++++++",
".++++++++++++++++++++++++++++++++++++++++++",
".++++++++++++++++++++++++++++++++++++++++++",
".++++++++++++++++++++++++++++++++++++++++++",
".++++++++++++++++++++++++++++++++++++++++++",
".++++++++++++++++++++++++++++++++++++++++++",
".++++++++++++++++++++++++++++++++++++++++++",
" .+++++++++++++++++++++++++++++++++++++++++",
"  .++++++++++++++++++++++++++++++++++++++++",
"   ........................................",
"                                           ",
"                                           ",
"                                           ",
"                                           ",
"                                           ",
"                                           ",
"                                           ",
"                                           ",
"                                           ",
"                                           ",
"                                           ",
"                                           ",
"                                           ",
"                                           "};
